X:1
T:Title
%%score { ( 1 3 ) | ( 2 4 ) }
L:1/8
M:3/4
K:G
V:1 treble nm="Grand Piano"
V:3 treble 
V:2 treble 
V:4 treble 
V:1
 z2 z2[Q:1/4=112] D>G | B2 c2 B2 | [FA]2 [GB]2 [CFA]2 | [G,B,DG]6- | [G,B,DG]4 [B,DG]>[B,DG] | %5
 [CEG]2 [CEF]2 [CEG]2 | [^CEA]2 [CEG]2 [CE]2 | [DFA]6- | [DFA]4 D>G | B2 c2 B2 | G4 B>A | %11
 z2 z2 B2 | [Ec]4 [EG]>[EA] | B2 c2 B2 | A2 E2 F2 | [B,DG]6- |[M:2/4] [B,DG]4 |[M:1/4] d>d | %18
[M:3/4] d3 c B2 | [FA]2 [GB]2 [Ac]2 | B6- | B4 z2 | ^c2 B2 A2 | e2 B2 ^c2 | F2 F2 G2 | %25
[M:4/4] A6 B>c |[M:3/4] d2 e2 d2 | B4 B>A | G2 A2 B2 | [Ec]4 [Ge]>[Ge] | [Gd]2 [Ac]2 B2 | %31
[M:7/8] A2 E3 F2 |[M:3/4] [B,DG]6- |[M:2/4] [B,DG]4 |] %34
V:2
 z2 z2 [G,B,]>[G,B,D] | [G,DG]2 [G,EG]2 [G,DG]2 | [D,D]2 [D,D]2 D,2 | G,,6- | G,,4 G,>G, | %5
 C,2 C,2 C,2 | A,,2 A,,2 A,,2 | D,6- | D,4 [G,B,]>[K:treble][G,B,D] | [G,DG]2 [G,EG]2 [G,DG]2 | %10
 [G,B,D]4 [G,DG]>[G,CG] | [G,B,D]2 [D,D]2 .[G,DG]2 | [C,C]4 [C,C]>[C,C] | [G,DG]2 [G,EG]2 [G,DG]2 | %14
 [A,^CE]2 [A,C]2[K:bass] [D,=CD]2 | [G,,G,]6- |[M:2/4] [G,,G,]4 | %17
[M:1/4][K:treble] [G,B,G]>[G,B,G] |[M:3/4] [G,B,G]3 [G,EG] [G,DG]2 | [D,D]2 [D,D]2 [D,D]2 | %20
 [DG]2 z2 z2 | z6 | [A,G]2 [A,EG]2 [A,^CG]2 | [A,^CG]2 [A,EG]2 [A,EG]2 | D,2 D,2 E,2 | %25
[M:4/4] F,6[K:treble] [G,DG]>[G,CG] |[M:3/4] [G,B,G]2 [G,CG]2 [G,B,G]2 | [G,DG]4 [G,DG]>[G,CG] | %28
 [G,B,]2 [G,CF]2 [G,D=F]2 | [C,C]4 [C,C]>[C,C] | [G,B,]2 [F,D]2[K:treble] [G,DG]2 | %31
[M:7/8] [A,^CE]2[K:bass] [A,C]3 [D,=CD]2 |[M:3/4] [G,,G,]6- |[M:2/4] [G,,G,]4 |] %34
V:3
 x6 | x6 | x6 | x6 | x6 | x6 | x6 | x6 | x6 | x6 | x6 | G2 [FA]2 z =F | x6 | x6 | x6 | x6 | %16
[M:2/4] x4 |[M:1/4] x2 |[M:3/4] x6 | x6 | z2 G2 G2 | G4 B>B | x6 | x6 | [Dd]6- |[M:4/4] [Dd]6 z2 | %26
[M:3/4] x6 | x6 | x6 | x6 | x6 |[M:7/8] x7 |[M:3/4] x6 |[M:2/4] x4 |] %34
V:4
 x6 | x6 | x6 | x6 | x6 | x6 | x6 | x6 | x11/2[K:treble] x/ | x6 | x6 | x6 | x6 | x6 | %14
 x4[K:bass] x2 | x6 |[M:2/4] x4 |[M:1/4][K:treble] x2 |[M:3/4] x6 | x6 | G,2- [G,-D]2 [G,-D]2 | %21
 [G,D]4 [G,DG]>[G,DG] | x6 | x6 | x6 |[M:4/4] x6[K:treble] x2 |[M:3/4] x6 | x6 | x6 | x6 | %30
 x4[K:treble] x2 |[M:7/8] x2[K:bass] x5 |[M:3/4] x6 |[M:2/4] x4 |] %34

